public/images/case-studies/filemaker/featured4.svg

<svg width="64" height="64" viewBox="0 0 64 64" fill="none" xmlns="http://www.w3.org/2000/svg">
<g clip-path="url(#clip0)">
<path d="M3.57031 19.7109L19.7023 3.57891L21.0801 4.95666L4.94806 21.0887L3.57031 19.7109Z" fill="#7F8284"/>
<path d="M12.5 25C5.60769 25 0 19.3923 0 12.5C0 5.60769 5.60769 0 12.5 0C19.3923 0 25 5.60769 25 12.5C25 19.3923 19.3923 25 12.5 25ZM12.5 1.92308C6.66923 1.92308 1.92308 6.66731 1.92308 12.5C1.92308 18.3327 6.66923 23.0769 12.5 23.0769C18.3308 23.0769 23.0769 18.3327 23.0769 12.5C23.0769 6.66731 18.3308 1.92308 12.5 1.92308Z" fill="#7F8284"/>
<path d="M9.33333 64H4C1.79467 64 0 62.2053 0 60V44C0 41.7947 1.79467 40 4 40H9.33333C11.5387 40 13.3333 41.7947 13.3333 44V60C13.3333 62.2053 11.5387 64 9.33333 64ZM4 42.6667C3.26667 42.6667 2.66667 43.264 2.66667 44V60C2.66667 60.736 3.26667 61.3333 4 61.3333H9.33333C10.0667 61.3333 10.6667 60.736 10.6667 60V44C10.6667 43.264 10.0667 42.6667 9.33333 42.6667H4Z" fill="#7F8284"/>
<path d="M25.3333 64.0002H20C17.7947 64.0002 16 62.2055 16 60.0002V33.3335C16 31.1282 17.7947 29.3335 20 29.3335H25.3333C26.824 29.3335 28.168 30.1415 28.8373 31.4428C29.176 32.0988 28.9173 32.9015 28.264 33.2402C27.6187 33.5735 26.8053 33.3228 26.4667 32.6668C26.2587 32.2562 25.824 32.0002 25.3333 32.0002H20C19.2667 32.0002 18.6667 32.5975 18.6667 33.3335V60.0002C18.6667 60.7362 19.2667 61.3335 20 61.3335H25.3333C25.824 61.3335 26.2587 61.0775 26.4693 60.6668C26.808 60.0108 27.6213 59.7628 28.2667 60.0935C28.92 60.4322 29.1787 61.2348 28.84 61.8908C28.168 63.1922 26.824 64.0002 25.3333 64.0002Z" fill="#7F8284"/>
<path d="M33.3333 27.9999C32.5973 27.9999 32 27.4026 32 26.6666V17.3333C32 15.1279 33.7947 13.3333 36 13.3333H41.3333C43.5387 13.3333 45.3333 15.1279 45.3333 17.3333V22.6666C45.3333 23.4026 44.736 23.9999 44 23.9999C43.264 23.9999 42.6667 23.4026 42.6667 22.6666V17.3333C42.6667 16.5973 42.0667 15.9999 41.3333 15.9999H36C35.2667 15.9999 34.6667 16.5973 34.6667 17.3333V26.6666C34.6667 27.4026 34.0693 27.9999 33.3333 27.9999Z" fill="#7F8284"/>
<path d="M60 29.3333C59.264 29.3333 58.6667 28.736 58.6667 28V4C58.6667 3.264 58.0667 2.66667 57.3333 2.66667H52C51.2667 2.66667 50.6667 3.264 50.6667 4V22.6667C50.6667 23.4027 50.0693 24 49.3333 24C48.5973 24 48 23.4027 48 22.6667V4C48 1.79467 49.7947 0 52 0H57.3333C59.5387 0 61.3333 1.79467 61.3333 4V28C61.3333 28.736 60.736 29.3333 60 29.3333Z" fill="#7F8284"/>
<path d="M48 32C39.1777 32 32 39.1777 32 48C32 56.8223 39.1777 64 48 64C56.8223 64 64 56.8223 64 48C64 39.1777 56.8223 32 48 32ZM57.1379 43.4141L45.6094 54.9427C45.3489 55.2031 45.0078 55.3333 44.6667 55.3333C44.3256 55.3333 43.9844 55.2031 43.724 54.9427L37.5287 48.7474C37.2683 48.4871 37.2683 48.0649 37.5287 47.8046L38.4713 46.8619C38.7318 46.6016 39.1537 46.6016 39.4142 46.8619L44.6667 52.1146L55.2525 41.5286C55.5129 41.2683 55.9349 41.2683 56.1954 41.5286L57.1379 42.4712C57.3984 42.7316 57.3984 43.1538 57.1379 43.4141Z" fill="#FF6B00"/>
</g>
<defs>
<clipPath id="clip0">
<rect width="64" height="64" fill="white"/>
</clipPath>
</defs>
</svg>

<svg xmlns="http://www.w3.org/2000/svg" width="64" height="64" fill="none" xmlns:v="https://vecta.io/nano"><g clip-path="url(#A)"><g fill="#7f8284"><path d="M3.57 19.711L19.702 3.579l1.378 1.378L4.948 21.089 3.57 19.711z"/><path d="M12.5 25C5.608 25 0 19.392 0 12.5S5.608 0 12.5 0 25 5.608 25 12.5 19.392 25 12.5 25zm0-23.077C6.669 1.923 1.923 6.667 1.923 12.5S6.669 23.077 12.5 23.077 23.077 18.333 23.077 12.5 18.331 1.923 12.5 1.923zM9.333 64H4c-2.205 0-4-1.795-4-4V44c0-2.205 1.795-4 4-4h5.333c2.205 0 4 1.795 4 4v16c0 2.205-1.795 4-4 4zM4 42.667c-.733 0-1.333.597-1.333 1.333v16c0 .736.6 1.333 1.333 1.333h5.333c.733 0 1.333-.597 1.333-1.333V44c0-.736-.6-1.333-1.333-1.333H4zM25.333 64H20c-2.205 0-4-1.795-4-4V33.334c0-2.205 1.795-4 4-4h5.333c1.491 0 2.835.808 3.504 2.109.339.656.08 1.459-.573 1.797a1.34 1.34 0 0 1-1.797-.573c-.208-.411-.643-.667-1.133-.667H20c-.733 0-1.333.597-1.333 1.333V60c0 .736.6 1.333 1.333 1.333h5.333c.491 0 .925-.256 1.136-.667.339-.656 1.152-.904 1.797-.573.653.339.912 1.141.573 1.797-.671 1.302-2.015 2.11-3.506 2.11zm8-36C32.597 28 32 27.403 32 26.667v-9.333c0-2.205 1.795-4 4-4h5.333c2.205 0 4 1.795 4 4v5.333c0 .736-.597 1.333-1.333 1.333s-1.333-.597-1.333-1.333v-5.333c0-.736-.6-1.333-1.333-1.333H36c-.733 0-1.333.597-1.333 1.333v9.333c0 .736-.597 1.333-1.333 1.333zM60 29.333c-.736 0-1.333-.597-1.333-1.333V4c0-.736-.6-1.333-1.333-1.333H52c-.733 0-1.333.597-1.333 1.333v18.667c0 .736-.597 1.333-1.333 1.333S48 23.403 48 22.667V4c0-2.205 1.795-4 4-4h5.333c2.205 0 4 1.795 4 4v24c0 .736-.597 1.333-1.333 1.333z"/></g><path d="M48 32c-8.822 0-16 7.178-16 16s7.178 16 16 16 16-7.178 16-16-7.178-16-16-16zm9.138 11.414L45.609 54.943a1.33 1.33 0 0 1-1.885 0l-6.195-6.195c-.26-.26-.26-.682 0-.943l.943-.943c.261-.26.682-.26.943 0l5.252 5.253 10.586-10.586c.26-.26.682-.26.943 0l.943.943c.261.26.261.683 0 .943z" fill="#ff6b00"/></g><defs><clipPath id="A"><path fill="#fff" d="M0 0h64v64H0z"/></clipPath></defs></svg>
